X:1
T:God Will Answer Your Prayer
T:God Will Answer Your Prayer
T:Charles H. Gabriel, c.1909
T:C. H. G.
T:PUBLIC DOMAIN
T:PUBLIC DOMAIN
C:Charles H. Gabriel, c.1909
Z:C. H. G.
Z:PUBLIC DOMAIN
%%score ( 1 2 ) 3
L:1/8
Q:3/8=40
M:9/8
K:G
V:1 treble nm="Treble"
V:2 treble 
V:3 bass nm="Bass"
V:1
 [DB] [CA] [Ec] | [DB]3 [DB] [CA] [B,G] [A,F] [B,G] [CA] | [B,G]6 [Bd] [^A^c] [=ce] | %3
w: 1.~Long you have|pled * at the throne of His|grace, Shed bit- ter|
w: 2.~Doubt not His|love, * nor His prom- ise as-|sail; On- ly be-|
w: 3.~In His own|time, * in His own per- fect|way— He know- eth|
w: 4.~Nev- er de-|spair, * He is faith- ful and|true; Keep hold- ing|
 [Bd]3 [Bd] [GB] [DA] [B,G] [DA] [GB] | ([GA]3 [FA]2) z | [DB] [CA][Ec] | %6
w: tears * in that sweet, hal- lowed|place; *|Yet, though it|
w: lieve, * for His word can- not|fail; *|“Ask what ye|
w: best— * it is thine to o-|bey; *|Tho’ you re-|
w: on, * there is vic- t’ry for|you; *|All you can|
 [DB]3 [DB] [B,G] [DA] [GB] [Fc] [=Fd] | [Ec]6 G2 A | B d2 d [DB][B,G] [A,F] [DB][CA] | [B,G]6 || %10
w: seem * He is hid- ing His|face, Keep on|pray- ing, * God will an- swer your|prayer.|
w: will,” * and your plea shall a-|vail, Keep on|pray- ing, * God will an- swer your|prayer.|
w: ceive * no as- sur- ance to-|day, Keep on|pray- ing, * God will an- swer your|prayer.|
w: ask * He is a- ble to|do— Keep on|pray- ing, * God will an- swer your|prayer.|
[M:4/4]"^Refrain" [Ge]2 [Ge]2 [Ge] [Ge]2 z | [Gd]2 [Gd]2 [Gd] [Gd]2 z | %12
w: Keep on pray- ing,|keep on pray- ing,|
w: ||
w: ||
w: ||
 [Ac]2 [Ac]2 [GB]2 [GB] [GB] | [GA] [GB] [GA] [GB] [FA]2 |[M:9/8] [DB] [CA] [Ec] | %15
w: You shall have your re-|ward some- time, some- where;|Trust Him, be-|
w: |||
w: |||
w: |||
 [DB]3 [DB] [B,G] [DA] [GB] [Fc] [=Fd] | [Ec]6 G2 A | B d2 d [GB][DG] [DF] [GB][DA] | [DG]6 |] %19
w: lieve, * and thy guer- don* re-|ceive; Keep on|pray- ing, * God will an- swer your|prayer.|
w: ||||
w: ||||
w: ||||
V:2
 x3 | x9 | x9 | x9 | x6 | z3 | x9 | z6 G3 | G3 G z z z3 | x6 ||[M:4/4] x8 | x8 | x8 | x6 | %14
[M:9/8] x3 | x9 | z6 G3 | G3 G z z z3 | x6 |] %19
V:3
 z3 | G,, B,, D, G,2 z D,3 | G,, D, B,, G,,2 z z3 | G,, B,, D, G,2 z G,,3 | E, ^C, A,, D, D,, z | %5
 z3 | G,, B,, D, G,2 z G,,3 | C, E, G, C, C,, z [C_E]3 | D B,2 B, z z D,3 | [G,,D,]6 || %10
[M:4/4] [C,C]2 [C,C]2 [C,C] [C,C]2 z | [G,B,]2 [G,B,]2 [G,B,] [G,B,]2 z | %12
 [F,D]2 [F,D]2 [G,D]2 [G,D] [G,D] | [E,^C] [E,C] [A,,C] [A,,C] [D,D]2 |[M:9/8] z3 | %15
 G,, B,, D, G,,2 z G,3 | C, E, G, C, C,, z [C_E]3 | D B,2 B, [G,D] [G,B,] [D,A,] [D,D] [D,C] | %18
 [G,,B,]6 |] %19

